images/users/snapdeal.svg

<?xml version="1.0" encoding="UTF-8"?>
<svg width="500px" height="200px" viewBox="0 0 500 200" version="1.1" xmlns="http://www.w3.org/2000/svg" xmlns:xlink="http://www.w3.org/1999/xlink">
    <!-- Generator: Sketch 41.2 (35397) - http://www.bohemiancoding.com/sketch -->
    <title>Group 3</title>
    <desc>Created with Sketch.</desc>
    <defs>
        <polygon id="path-1" points="0.000399011818 92.8668019 103.853026 92.8668019 103.853026 0.306543652 0.000399011818 0.306543652"></polygon>
    </defs>
    <g id="Page-1" stroke="none" stroke-width="1" fill="none" fill-rule="evenodd">
        <g id="Group-5">
            <g id="Group-3">
                <rect id="Rectangle" fill="#FFFFFF" x="0" y="0" width="500" height="200"></rect>
                <g id="Group" transform="translate(11.000000, 50.000000)">
                    <g id="Page-1">
                        <path d="M138.028235,25.9655578 C127.655524,25.9655578 121.412782,31.1389182 121.412782,39.6577485 C121.412782,46.2512914 124.936693,50.815355 136.316878,54.8720487 L140.042059,56.1914368 C147.091005,58.7271535 149.206026,60.8562948 149.206026,64.4067512 C149.206026,68.8700203 145.379648,71.6084584 138.934512,71.6084584 C133.69812,71.6084584 129.569275,69.9855544 125.6417,66.2323766 C124.030416,64.6094726 121.916519,64.6094726 120.305235,66.2323766 L120.204038,66.3343036 C118.895221,67.6525592 118.895221,70.2890703 120.204038,71.6084584 C125.541627,76.7806863 131.381829,78.9109601 138.934512,78.9109601 C150.313573,78.9109601 157.262446,73.5348783 157.262446,64.3048242 C157.262446,57.1042495 153.737411,53.0464233 142.76089,49.090524 L139.135782,47.7722684 C131.684296,45.0338303 129.468078,42.9035565 129.468078,39.3542326 C129.468078,35.7029817 132.791843,33.2680595 138.028235,33.2680595 C142.35835,33.2680595 145.782188,34.790169 149.407296,38.035977 C151.01858,39.556954 153.233674,39.455027 154.844958,37.8321231 L154.946155,37.7313286 C156.254972,36.413073 156.254972,33.7754293 154.844958,32.5579682 C149.911033,27.9939047 144.875911,25.9655578 138.028235,25.9655578" id="Fill-1" fill="#333333"></path>
                        <path d="M246.483618,57.0024358 L246.483618,57.2051572 L246.483618,58.2198969 C246.483618,65.9278414 241.045956,71.6074391 232.284528,71.6074391 C225.436852,71.6074391 221.308007,68.4635581 221.308007,62.6820335 C221.308007,57.1043627 225.739319,53.8585548 233.392075,53.8585548 L246.483618,53.8585548 L246.483618,57.0024358 Z M234.702017,25.9656711 C228.45815,25.9656711 222.616824,27.6893695 216.977892,33.4708942 C215.669075,34.8910767 215.669075,37.6295149 216.977892,38.9477705 L217.179162,39.1516244 C218.690373,40.6726014 220.905467,40.6726014 222.415554,39.0496974 C226.544399,34.5864283 230.573172,33.2681728 234.702017,33.2681728 C242.052305,33.2681728 246.483618,37.4267934 246.483618,44.3238523 L246.483618,46.859569 L233.392075,46.859569 C220.704197,46.859569 213.252712,52.6410936 213.252712,62.6820335 C213.252712,72.114809 220.40173,78.9110734 230.471974,78.9110734 C237.622118,78.9110734 243.160977,76.0707082 246.584815,71.5066447 L246.584815,73.737713 C246.584815,75.7660598 248.296172,77.4908908 250.411193,77.4908908 L250.612463,77.4908908 C252.626287,77.4908908 254.338768,75.7660598 254.338768,73.6369185 L254.338768,44.3238523 C254.338768,32.8627299 246.987355,25.9656711 234.702017,25.9656711 L234.702017,25.9656711 Z" id="Fill-3" fill="#333333"></path>
                        <path d="M449.195631,57.0024358 L449.195631,57.2051572 L449.195631,58.2198969 C449.195631,65.9278414 443.757969,71.6074391 434.996541,71.6074391 C428.148865,71.6074391 424.02002,68.4635581 424.02002,62.6820335 C424.02002,57.1043627 428.451332,53.8585548 436.104088,53.8585548 L449.195631,53.8585548 L449.195631,57.0024358 Z M437.412905,25.9656711 C426.840048,25.9656711 418.582358,32.2545656 418.582358,36.4120538 C418.582358,37.4267934 418.884825,38.4415331 419.589832,39.1516244 L419.791102,39.3543458 C420.496109,40.0644371 421.301189,40.367953 422.308663,40.367953 C424.02002,40.367953 425.228764,39.0496974 426.840048,37.4267934 C428.853872,35.3984466 432.07644,33.2681728 437.412905,33.2681728 C444.764318,33.2681728 449.195631,37.4267934 449.195631,44.3238523 L449.195631,46.859569 L436.104088,46.859569 C423.41621,46.859569 415.964724,52.6410936 415.964724,62.6820335 C415.964724,72.114809 423.113743,78.9110734 433.183987,78.9110734 C440.334131,78.9110734 445.87299,76.0707082 449.296828,71.5066447 L449.296828,73.737713 C449.296828,75.7660598 451.008185,77.4908908 453.123206,77.4908908 L453.324476,77.4908908 C455.3383,77.4908908 457.050781,75.7660598 457.050781,73.6369185 L457.050781,44.3238523 C457.050781,32.8627299 449.699368,25.9656711 437.412905,25.9656711 L437.412905,25.9656711 Z" id="Fill-5" fill="#333333"></path>
                        <path d="M349.90399,56.7994878 C348.896516,66.1303364 344.265058,71.6083452 335.806098,71.6083452 C326.239591,71.6083452 321.505812,64.5074324 321.505812,52.4381457 C321.505812,40.3677265 326.239591,33.2679462 335.806098,33.2679462 C344.365131,33.2679462 348.997713,38.9486765 349.90399,48.4822465 L349.90399,56.7994878 Z M357.759141,64.2039165 L357.759141,4.05680696 C357.759141,1.92766565 356.046659,0.202834686 353.931638,0.202834686 L353.730368,0.202834686 C351.616472,0.202834686 349.90399,1.92766565 349.90399,4.05680696 L349.90399,33.1671518 C346.378955,28.5011613 341.142563,25.9654446 334.194814,25.9654446 C320.800805,25.9654446 313.450516,35.7028685 313.450516,52.4381457 C313.450516,69.1734229 320.800805,78.9108469 334.194814,78.9108469 C341.6463,78.9108469 347.185159,75.9696873 350.608997,70.5936055 C352.019012,74.8530206 355.341652,78.2007556 358.56422,78.2007556 C360.679242,78.2007556 362.491796,76.6797786 362.491796,74.4475778 C362.491796,70.390884 357.759141,70.9990483 357.759141,64.2039165 L357.759141,64.2039165 Z" id="Fill-7" fill="#333333"></path>
                        <path d="M284.750208,71.6080054 C275.183701,71.6080054 270.451046,64.5082252 270.451046,52.8443813 L270.451046,52.0323631 C270.451046,40.3685193 275.183701,33.268739 284.750208,33.268739 C294.115445,33.268739 299.04937,40.3685193 299.04937,52.4378059 C299.04937,64.5082252 294.115445,71.6080054 284.750208,71.6080054 M286.361492,25.9651048 C279.412619,25.9651048 274.076154,28.6027485 270.551119,33.3695335 L270.551119,31.1384652 C270.551119,29.1101183 268.839762,27.3852874 266.824814,27.3852874 L266.623544,27.3852874 C264.509647,27.3852874 262.797166,29.1101183 262.797166,31.1384652 L262.797166,93.8201589 C262.797166,95.9504327 264.509647,97.6752637 266.623544,97.6752637 L266.824814,97.6752637 C268.939835,97.6752637 270.652316,95.9504327 270.652316,93.8201589 L270.652316,71.6080054 C274.176227,76.3747904 279.412619,78.9105071 286.361492,78.9105071 C299.754377,78.9105071 307.10579,69.1742157 307.10579,52.4378059 C307.10579,35.7025287 299.754377,25.9651048 286.361492,25.9651048" id="Fill-9" fill="#333333"></path>
                        <path d="M388.371963,33.268286 C397.33466,33.268286 401.866045,38.6443678 402.369782,48.0771433 L374.575414,48.0771433 C375.582888,38.7451623 380.114273,33.268286 388.371963,33.268286 L388.371963,33.268286 Z M408.109912,67.5508587 C406.498627,66.0298817 404.282409,65.8260277 402.469855,67.2462103 C398.54228,70.2892968 395.018369,71.6075524 389.983247,71.6075524 C380.315543,71.6075524 375.079151,65.4205849 374.475341,55.0749966 L405.389956,55.0749966 C408.311181,55.0749966 410.426203,52.9447228 410.426203,50.0035632 C410.426203,34.9919844 403.276059,25.9657843 388.371963,25.9657843 C373.871531,25.9657843 366.318848,35.8040027 366.318848,52.4384855 C366.318848,69.0718357 374.475341,78.9111866 389.983247,78.9111866 C397.33466,78.9111866 402.469855,77.0855612 407.908642,72.6222921 C409.418728,71.404831 409.518801,68.9710412 408.209984,67.6527857 L408.109912,67.5508587 Z" id="Fill-11" fill="#333333"></path>
                        <path d="M172.367363,73.6364655 L172.367363,48.5839469 C172.367363,39.0492444 177.100018,33.2677197 185.961518,33.2677197 C194.521675,33.2677197 198.24798,38.1364317 198.24798,47.8738556 L198.24798,73.6364655 C198.24798,75.7667394 199.959337,77.4904378 202.074358,77.4904378 L202.275628,77.4904378 C204.390649,77.4904378 206.102006,75.7667394 206.102006,73.6364655 L206.102006,47.6711342 C206.102006,32.9642039 200.463074,25.9652181 187.775196,25.9652181 C180.826323,25.9652181 175.589931,28.6028617 172.266166,33.3696467 L172.266166,31.1385784 C172.266166,29.1102316 170.554809,27.3854006 168.540985,27.3854006 L168.339715,27.3854006 C166.224694,27.3854006 164.512213,29.1102316 164.512213,31.1385784 L164.512213,73.6364655 C164.512213,75.7667394 166.224694,77.4904378 168.339715,77.4904378 L168.540985,77.4904378 C170.654882,77.4904378 172.367363,75.7667394 172.367363,73.6364655" id="Fill-13" fill="#333333"></path>
                        <path d="M474.169521,78.2007556 C476.284542,78.2007556 478.097096,76.6797786 478.097096,74.4475778 C478.097096,70.390884 473.364441,70.9990483 473.364441,64.2039165 L473.364441,4.05680696 C473.364441,1.92766565 471.65196,0.202834686 469.536939,0.202834686 L469.335669,0.202834686 C467.220648,0.202834686 465.509291,1.92766565 465.509291,4.05680696 L465.509291,66.3341903 C465.509291,72.3184364 469.839406,78.2007556 474.169521,78.2007556" id="Fill-15" fill="#333333"></path>
                        <g id="Group-19" transform="translate(0.000000, 4.909483)">
                            <mask id="mask-2" fill="white">
                                <use xlink:href="#path-1"></use>
                            </mask>
                            <g id="Clip-18"></g>
                            <path d="M21.7180399,90.2297245 C22.8255869,92.1572769 24.034331,92.8673682 26.2494249,92.8673682 L67.5367512,92.8673682 C69.7529695,92.8673682 70.9605892,92.2580713 72.3706033,90.4324459 L103.58881,49.8609787 C104.292692,48.948166 103.487613,47.427189 102.380066,47.427189 L52.3313122,47.427189 C50.1162183,47.427189 48.9074742,46.7170977 47.7999272,44.7906778 L22.6243169,0.973402637 C22.020507,-0.0413370521 20.409223,0.162516903 20.0055587,1.17612407 L0.571201878,48.5427231 C-0.335075117,50.672997 -0.133805164,52.0931795 0.973741784,54.0195994 L21.7180399,90.2297245 Z" id="Fill-17" fill="#E40046" mask="url(#mask-2)"></path>
                        </g>
                        <path d="M73.6799824,42.8025355 C74.7875293,44.7300879 75.9962735,45.4401792 78.2113674,45.4401792 L102.379504,45.4401792 C103.588248,45.4401792 104.494525,43.9180696 103.890715,42.8025355 L80.8301256,2.63764368 C79.7225786,0.710091278 78.5138345,0 76.2987406,0 L30.1764378,0 C28.9688181,0 28.0625411,1.52097701 28.6663509,2.63764368 L40.6503462,23.5315416 C41.7578932,25.4579615 42.9655129,26.1680527 45.1817312,26.1680527 L64.2135481,26.1680527 L73.6799824,42.8025355 Z" id="Fill-20" fill="#E40046"></path>
                    </g>
                </g>
            </g>
        </g>
    </g>
</svg>

<svg width="479" height="98" viewBox="0 0 479 98" xmlns="http://www.w3.org/2000/svg" xmlns:xlink="http://www.w3.org/1999/xlink"><title>Page 1</title><defs><path id="a" d="M0 92.867h103.853V.307H0z"/></defs><g fill="none" fill-rule="evenodd"><path d="M138.028 25.966c-10.372 0-16.615 5.173-16.615 13.692 0 6.593 3.524 11.157 14.904 15.214l3.725 1.32c7.05 2.535 9.164 4.664 9.164 8.215 0 4.463-3.826 7.2-10.27 7.2-5.238 0-9.367-1.62-13.294-5.375-1.612-1.623-3.725-1.623-5.337 0l-.1.102c-1.31 1.32-1.31 3.955 0 5.274 5.337 5.173 11.177 7.303 18.73 7.303 11.38 0 18.327-5.375 18.327-14.605 0-7.2-3.525-11.26-14.5-15.214l-3.626-1.318c-7.452-2.738-9.668-4.868-9.668-8.418 0-3.65 3.324-6.086 8.56-6.086 4.33 0 7.754 1.522 11.38 4.768 1.61 1.52 3.826 1.42 5.437-.204l.1-.1c1.31-1.32 1.31-3.957-.1-5.174-4.934-4.564-9.97-6.592-16.817-6.592M246.484 57.002v1.218c0 7.708-5.438 13.387-14.2 13.387-6.847 0-10.976-3.143-10.976-8.925 0-5.578 4.43-8.823 12.084-8.823h13.092V57zm-11.782-31.036c-6.244 0-12.085 1.723-17.724 7.505-1.31 1.42-1.31 4.16 0 5.478l.2.204c1.512 1.52 3.727 1.52 5.238-.102 4.128-4.464 8.157-5.782 12.286-5.782 7.35 0 11.782 4.16 11.782 11.056v2.536h-13.092c-12.688 0-20.14 5.78-20.14 15.822 0 9.433 7.15 16.23 17.22 16.23 7.15 0 12.69-2.84 16.113-7.405v2.23c0 2.03 1.71 3.754 3.826 3.754h.202c2.014 0 3.727-1.724 3.727-3.853V44.324c0-11.46-7.353-18.358-19.638-18.358zM449.196 57.002v1.218c0 7.708-5.438 13.387-14.2 13.387-6.847 0-10.976-3.143-10.976-8.925 0-5.578 4.43-8.823 12.084-8.823h13.092V57zm-11.783-31.036c-10.573 0-18.83 6.29-18.83 10.446 0 1.015.302 2.03 1.007 2.74l.2.202c.706.71 1.51 1.014 2.52 1.014 1.71 0 2.92-1.318 4.53-2.94 2.014-2.03 5.236-4.16 10.573-4.16 7.35 0 11.783 4.16 11.783 11.056v2.536h-13.092c-12.688 0-20.14 5.78-20.14 15.822 0 9.433 7.15 16.23 17.22 16.23 7.15 0 12.69-2.84 16.113-7.405v2.23c0 2.03 1.71 3.754 3.826 3.754h.2c2.015 0 3.728-1.724 3.728-3.853V44.324c0-11.46-7.35-18.358-19.637-18.358zM349.904 56.8c-1.007 9.33-5.64 14.808-14.098 14.808-9.566 0-14.3-7.1-14.3-19.17 0-12.07 4.734-19.17 14.3-19.17 8.56 0 13.192 5.68 14.098 15.214V56.8zm7.855 7.404V4.057c0-2.13-1.713-3.854-3.828-3.854h-.202c-2.114 0-3.826 1.725-3.826 3.854v29.11c-3.525-4.666-8.76-7.202-15.71-7.202-13.393 0-20.743 9.738-20.743 26.473s7.35 26.473 20.745 26.473c7.45 0 12.99-2.94 16.414-8.316 1.41 4.26 4.732 7.607 7.954 7.607 2.115 0 3.928-1.52 3.928-3.752 0-4.057-4.733-3.45-4.733-10.244zM284.75 71.608c-9.566 0-14.3-7.1-14.3-18.764v-.812c0-11.663 4.734-18.763 14.3-18.763 9.365 0 14.3 7.1 14.3 19.168 0 12.07-4.935 19.17-14.3 19.17m1.61-45.643c-6.947 0-12.284 2.638-15.81 7.405v-2.232c0-2.028-1.71-3.753-3.725-3.753h-.2c-2.115 0-3.828 1.725-3.828 3.753V93.82c0 2.13 1.713 3.855 3.827 3.855h.2c2.116 0 3.828-1.725 3.828-3.855V71.608c3.524 4.767 8.76 7.303 15.71 7.303 13.392 0 20.744-9.736 20.744-26.472 0-16.735-7.352-26.473-20.745-26.473M388.372 33.268c8.963 0 13.494 5.376 13.998 14.81h-27.795c1.008-9.333 5.54-14.81 13.797-14.81zM408.11 67.55c-1.61-1.52-3.828-1.724-5.64-.304-3.928 3.043-7.452 4.362-12.487 4.362-9.667 0-14.904-6.187-15.508-16.533h30.915c2.92 0 5.036-2.13 5.036-5.07 0-15.013-7.15-24.04-22.054-24.04-14.5 0-22.053 9.84-22.053 26.473 0 16.634 8.155 26.473 23.663 26.473 7.352 0 12.487-1.824 17.926-6.288 1.51-1.217 1.61-3.65.3-4.97l-.1-.1zM172.367 73.636V48.584c0-9.535 4.733-15.316 13.595-15.316 8.56 0 12.286 4.868 12.286 14.606v25.762c0 2.13 1.71 3.854 3.826 3.854h.202c2.115 0 3.826-1.723 3.826-3.854V47.67c0-14.706-5.64-21.705-18.327-21.705-6.95 0-12.185 2.638-15.51 7.405v-2.23c0-2.03-1.71-3.755-3.724-3.755h-.2c-2.115 0-3.828 1.725-3.828 3.754v42.496c0 2.13 1.713 3.854 3.828 3.854h.2c2.115 0 3.827-1.723 3.827-3.854M474.17 78.2c2.115 0 3.927-1.52 3.927-3.752 0-4.057-4.733-3.45-4.733-10.244V4.057c0-2.13-1.712-3.854-3.827-3.854h-.2c-2.116 0-3.828 1.725-3.828 3.854v62.277c0 5.984 4.33 11.867 8.66 11.867" fill="#333"/><g transform="translate(0 4.91)"><mask id="b" fill="#fff"><use xlink:href="#a"/></mask><path d="M21.718 90.23c1.108 1.927 2.316 2.637 4.53 2.637h41.29c2.215 0 3.423-.61 4.833-2.435l31.22-40.57c.703-.914-.102-2.435-1.21-2.435H52.33c-2.214 0-3.423-.71-4.53-2.636L22.624.974c-.603-1.014-2.215-.81-2.618.203L.57 48.543c-.905 2.13-.704 3.55.404 5.477l20.744 36.21z" fill="#E40046" mask="url(#b)"/></g><path d="M73.68 42.803c1.108 1.927 2.316 2.637 4.53 2.637h24.17c1.208 0 2.115-1.522 1.51-2.637L80.83 2.638C79.723.71 78.514 0 76.3 0H30.175c-1.207 0-2.113 1.52-1.51 2.638L40.65 23.532c1.108 1.926 2.316 2.636 4.532 2.636h19.032l9.466 16.635z" fill="#E40046"/></g></svg>
